en/_assets/tracker/svg/progress.svg

<svg width="97" height="20" viewBox="0 0 97 20" fill="none" xmlns="http://www.w3.org/2000/svg">
<g clip-path="url(#clip0_3479_35432)">
<path fill-rule="evenodd" clip-rule="evenodd" d="M16.125 10C16.125 12.2782 14.2782 14.125 12 14.125C9.72182 14.125 7.875 12.2782 7.875 10C7.875 7.72182 9.72182 5.875 12 5.875C14.2782 5.875 16.125 7.72182 16.125 10ZM17.25 10C17.25 12.8995 14.8995 15.25 12 15.25C9.1005 15.25 6.75 12.8995 6.75 10C6.75 7.1005 9.1005 4.75 12 4.75C14.8995 4.75 17.25 7.1005 17.25 10ZM11.4375 12.2733L14.25 10.6495C14.75 10.3608 14.75 9.63916 14.25 9.35048L11.4375 7.72668C10.9375 7.43801 10.3125 7.79885 10.3125 8.3762L10.3125 11.6238C10.3125 12.2011 10.9375 12.562 11.4375 12.2733Z" fill="#4E79EB"/>
</g>
<path d="M25.314 4.679V14H24.092V4.679H25.314ZM30.5236 8.137C30.0036 8.137 29.579 8.25833 29.2496 8.501C28.929 8.735 28.669 9.03833 28.4696 9.411V14H27.3256V7.253H28.4046L28.4436 8.462H28.4696C28.6516 8.072 28.9376 7.75133 29.3276 7.5C29.7176 7.24867 30.2116 7.123 30.8096 7.123C31.477 7.123 32.0056 7.30067 32.3956 7.656C32.7943 8.00267 32.9936 8.54 32.9936 9.268V14H31.8496V9.385C31.8496 8.917 31.7326 8.592 31.4986 8.41C31.2646 8.228 30.9396 8.137 30.5236 8.137ZM41.0526 14.13C40.5326 14.13 40.082 14.0087 39.7006 13.766C39.328 13.5233 39.029 13.1897 38.8036 12.765V16.301H37.6596V7.253H38.6606L38.7776 8.566C39.003 8.124 39.3063 7.773 39.6876 7.513C40.069 7.253 40.5413 7.123 41.1046 7.123C41.4946 7.123 41.8673 7.19667 42.2226 7.344C42.5866 7.48267 42.903 7.69933 43.1716 7.994C43.449 8.28 43.6656 8.644 43.8216 9.086C43.9863 9.51933 44.0686 10.0307 44.0686 10.62C44.0686 11.218 43.9863 11.738 43.8216 12.18C43.657 12.6133 43.436 12.9773 43.1586 13.272C42.8813 13.558 42.5606 13.7747 42.1966 13.922C41.8326 14.0607 41.4513 14.13 41.0526 14.13ZM40.8836 13.103C41.4816 13.103 41.9626 12.8993 42.3266 12.492C42.6993 12.076 42.8856 11.452 42.8856 10.62C42.8856 9.80533 42.6993 9.19 42.3266 8.774C41.9626 8.34933 41.4816 8.137 40.8836 8.137C40.589 8.137 40.3116 8.189 40.0516 8.293C39.8003 8.397 39.5793 8.553 39.3886 8.761C39.2066 8.96033 39.0593 9.216 38.9466 9.528C38.8426 9.84 38.7906 10.204 38.7906 10.62C38.7906 11.036 38.8426 11.4 38.9466 11.712C39.0593 12.024 39.2066 12.284 39.3886 12.492C39.5793 12.7 39.8003 12.856 40.0516 12.96C40.3116 13.0553 40.589 13.103 40.8836 13.103ZM48.7956 8.397C48.3102 8.44033 47.8682 8.566 47.4696 8.774C47.0796 8.97333 46.7892 9.28533 46.5986 9.71V14H45.4546V7.253H46.4556L46.5726 8.722H46.5986C46.7892 8.32333 47.0622 7.97667 47.4176 7.682C47.7816 7.37867 48.2409 7.19233 48.7956 7.123V8.397ZM52.7685 14.13C52.3091 14.13 51.8801 14.052 51.4815 13.896C51.0828 13.74 50.7361 13.5147 50.4415 13.22C50.1555 12.9167 49.9301 12.5483 49.7655 12.115C49.6008 11.6817 49.5185 11.1833 49.5185 10.62C49.5185 10.0653 49.6008 9.57133 49.7655 9.138C49.9301 8.696 50.1555 8.32767 50.4415 8.033C50.7361 7.73833 51.0828 7.513 51.4815 7.357C51.8801 7.201 52.3091 7.123 52.7685 7.123C53.2365 7.123 53.6698 7.201 54.0685 7.357C54.4671 7.513 54.8095 7.73833 55.0955 8.033C55.3901 8.32767 55.6198 8.696 55.7845 9.138C55.9578 9.57133 56.0445 10.0653 56.0445 10.62C56.0445 11.1833 55.9578 11.6817 55.7845 12.115C55.6198 12.5483 55.3901 12.9167 55.0955 13.22C54.8095 13.5147 54.4671 13.74 54.0685 13.896C53.6698 14.052 53.2365 14.13 52.7685 14.13ZM52.7685 13.103C53.0718 13.103 53.3491 13.0553 53.6005 12.96C53.8605 12.856 54.0858 12.7043 54.2765 12.505C54.4671 12.297 54.6145 12.037 54.7185 11.725C54.8225 11.413 54.8745 11.0447 54.8745 10.62C54.8745 10.1953 54.8225 9.827 54.7185 9.515C54.6145 9.203 54.4671 8.94733 54.2765 8.748C54.0858 8.54 53.8605 8.38833 53.6005 8.293C53.3491 8.189 53.0718 8.137 52.7685 8.137C52.4651 8.137 52.1878 8.189 51.9365 8.293C51.6851 8.38833 51.4641 8.54 51.2735 8.748C51.0915 8.94733 50.9485 9.203 50.8445 9.515C50.7405 9.827 50.6885 10.1953 50.6885 10.62C50.6885 11.0447 50.7405 11.413 50.8445 11.725C50.9485 12.037 51.0915 12.297 51.2735 12.505C51.4641 12.7043 51.6851 12.856 51.9365 12.96C52.1878 13.0553 52.4651 13.103 52.7685 13.103ZM63.2369 13.428C63.2369 13.8613 63.1719 14.2557 63.0419 14.611C62.9206 14.975 62.7213 15.2827 62.4439 15.534C62.1753 15.7853 61.8243 15.9803 61.3909 16.119C60.9663 16.2577 60.4506 16.327 59.8439 16.327C59.5146 16.327 59.2243 16.3097 58.9729 16.275C58.7216 16.2403 58.5006 16.1927 58.3099 16.132C58.1279 16.08 57.9719 16.0193 57.8419 15.95C57.7119 15.8893 57.6036 15.8287 57.5169 15.768V14.741C57.6556 14.819 57.7986 14.8883 57.9459 14.949C58.1019 15.0183 58.2709 15.079 58.4529 15.131C58.6349 15.183 58.8386 15.222 59.0639 15.248C59.2979 15.2827 59.5623 15.3 59.8569 15.3C60.6889 15.3 61.2696 15.144 61.5989 14.832C61.9283 14.52 62.0929 14.0563 62.0929 13.441V12.401C61.8936 12.7997 61.6119 13.1203 61.2479 13.363C60.8926 13.6057 60.4506 13.727 59.9219 13.727C59.5233 13.727 59.1419 13.6577 58.7779 13.519C58.4226 13.3803 58.1063 13.1767 57.8289 12.908C57.5603 12.6307 57.3436 12.2883 57.1789 11.881C57.0229 11.465 56.9449 10.984 56.9449 10.438C56.9449 9.88333 57.0229 9.40233 57.1789 8.995C57.3436 8.579 57.5603 8.23233 57.8289 7.955C58.1063 7.67767 58.4269 7.46967 58.7909 7.331C59.1549 7.19233 59.5406 7.123 59.9479 7.123C60.4853 7.123 60.9359 7.24433 61.2999 7.487C61.6726 7.72967 61.9629 8.059 62.1709 8.475L62.1839 8.332C62.1839 8.176 62.1926 7.98967 62.2099 7.773C62.2273 7.54767 62.2446 7.37433 62.2619 7.253H63.3019C63.2846 7.37433 63.2673 7.54767 63.2499 7.773C63.2413 7.99833 63.2369 8.18467 63.2369 8.332V13.428ZM60.1299 12.7C60.4159 12.7 60.6759 12.6567 60.9099 12.57C61.1526 12.4747 61.3606 12.3317 61.5339 12.141C61.7159 11.9503 61.8546 11.7163 61.9499 11.439C62.0539 11.153 62.1059 10.8193 62.1059 10.438C62.1059 9.66667 61.9153 9.09033 61.5339 8.709C61.1613 8.32767 60.6889 8.137 60.1169 8.137C59.8309 8.137 59.5623 8.18467 59.3109 8.28C59.0683 8.37533 58.8559 8.51833 58.6739 8.709C58.5006 8.89967 58.3619 9.14233 58.2579 9.437C58.1539 9.723 58.1019 10.0567 58.1019 10.438C58.1019 10.8193 58.1539 11.153 58.2579 11.439C58.3619 11.7163 58.5049 11.9503 58.6869 12.141C58.8689 12.323 59.0813 12.4617 59.3239 12.557C59.5753 12.6523 59.8439 12.7 60.1299 12.7ZM68.4352 8.397C67.9499 8.44033 67.5079 8.566 67.1092 8.774C66.7192 8.97333 66.4289 9.28533 66.2382 9.71V14H65.0942V7.253H66.0952L66.2122 8.722H66.2382C66.4289 8.32333 66.7019 7.97667 67.0572 7.682C67.4212 7.37867 67.8805 7.19233 68.4352 7.123V8.397ZM75.0081 13.428C74.9128 13.4973 74.7958 13.571 74.6571 13.649C74.5185 13.727 74.3495 13.805 74.1501 13.883C73.9508 13.9523 73.7255 14.0087 73.4741 14.052C73.2228 14.104 72.9411 14.13 72.6291 14.13C71.4938 14.13 70.6315 13.8223 70.0421 13.207C69.4528 12.5917 69.1581 11.7293 69.1581 10.62C69.1581 10.074 69.2361 9.58433 69.3921 9.151C69.5568 8.71767 69.7821 8.35367 70.0681 8.059C70.3541 7.75567 70.6921 7.526 71.0821 7.37C71.4721 7.20533 71.8968 7.123 72.3561 7.123C72.8415 7.123 73.2748 7.20533 73.6561 7.37C74.0375 7.53467 74.3495 7.77733 74.5921 8.098C74.8435 8.41867 75.0125 8.81733 75.0991 9.294C75.1945 9.762 75.1945 10.308 75.0991 10.932H70.3411C70.3845 11.66 70.6011 12.206 70.9911 12.57C71.3811 12.9253 71.9618 13.103 72.7331 13.103C73.2531 13.103 73.6995 13.0293 74.0721 12.882C74.4448 12.7347 74.7568 12.5743 75.0081 12.401V13.428ZM72.3301 8.137C71.8361 8.137 71.4115 8.28867 71.0561 8.592C70.7008 8.89533 70.4755 9.35467 70.3801 9.97H74.0071C74.0418 9.346 73.8988 8.88667 73.5781 8.592C73.2575 8.28867 72.8415 8.137 72.3301 8.137ZM78.6907 14.13C78.3353 14.13 78.019 14.0997 77.7417 14.039C77.473 13.987 77.2347 13.922 77.0267 13.844C76.8273 13.7573 76.6583 13.6707 76.5197 13.584C76.381 13.4887 76.2727 13.4063 76.1947 13.337V12.31C76.2813 12.3967 76.3983 12.492 76.5457 12.596C76.693 12.6913 76.8707 12.7823 77.0787 12.869C77.2867 12.9557 77.5207 13.0293 77.7807 13.09C78.0493 13.142 78.3483 13.168 78.6777 13.168C79.163 13.168 79.5487 13.09 79.8347 12.934C80.1207 12.778 80.2637 12.5137 80.2637 12.141C80.2637 11.9417 80.216 11.7813 80.1207 11.66C80.034 11.5387 79.9127 11.4433 79.7567 11.374C79.6007 11.296 79.4187 11.2353 79.2107 11.192C79.0113 11.1487 78.799 11.1053 78.5737 11.062C78.2877 11.0013 78.006 10.9363 77.7287 10.867C77.4513 10.789 77.2 10.6807 76.9747 10.542C76.7493 10.3947 76.5673 10.2083 76.4287 9.983C76.29 9.749 76.2207 9.44567 76.2207 9.073C76.2207 8.46633 76.4547 7.98967 76.9227 7.643C77.3993 7.29633 78.0623 7.123 78.9117 7.123C79.3883 7.123 79.8087 7.17067 80.1727 7.266C80.5453 7.36133 80.8313 7.46533 81.0307 7.578V8.605C80.8053 8.45767 80.5237 8.33633 80.1857 8.241C79.8563 8.137 79.4447 8.085 78.9507 8.085C78.4393 8.085 78.045 8.15433 77.7677 8.293C77.499 8.43167 77.3647 8.683 77.3647 9.047C77.3647 9.229 77.4037 9.37633 77.4817 9.489C77.5597 9.593 77.6637 9.67967 77.7937 9.749C77.9323 9.80967 78.0883 9.85733 78.2617 9.892C78.435 9.92667 78.617 9.96567 78.8077 10.009C79.1023 10.0697 79.4057 10.1347 79.7177 10.204C80.0297 10.2733 80.307 10.3817 80.5497 10.529C80.801 10.6763 81.0047 10.8757 81.1607 11.127C81.3253 11.3697 81.4077 11.699 81.4077 12.115C81.4077 12.505 81.3297 12.83 81.1737 13.09C81.0177 13.35 80.8097 13.558 80.5497 13.714C80.2983 13.8613 80.008 13.9653 79.6787 14.026C79.358 14.0953 79.0287 14.13 78.6907 14.13ZM84.9749 14.13C84.6195 14.13 84.3032 14.0997 84.0259 14.039C83.7572 13.987 83.5189 13.922 83.3109 13.844C83.1115 13.7573 82.9425 13.6707 82.8039 13.584C82.6652 13.4887 82.5569 13.4063 82.4789 13.337V12.31C82.5655 12.3967 82.6825 12.492 82.8299 12.596C82.9772 12.6913 83.1549 12.7823 83.3629 12.869C83.5709 12.9557 83.8049 13.0293 84.0649 13.09C84.3335 13.142 84.6325 13.168 84.9619 13.168C85.4472 13.168 85.8329 13.09 86.1189 12.934C86.4049 12.778 86.5479 12.5137 86.5479 12.141C86.5479 11.9417 86.5002 11.7813 86.4049 11.66C86.3182 11.5387 86.1969 11.4433 86.0409 11.374C85.8849 11.296 85.7029 11.2353 85.4949 11.192C85.2955 11.1487 85.0832 11.1053 84.8579 11.062C84.5719 11.0013 84.2902 10.9363 84.0129 10.867C83.7355 10.789 83.4842 10.6807 83.2589 10.542C83.0335 10.3947 82.8515 10.2083 82.7129 9.983C82.5742 9.749 82.5049 9.44567 82.5049 9.073C82.5049 8.46633 82.7389 7.98967 83.2069 7.643C83.6835 7.29633 84.3465 7.123 85.1959 7.123C85.6725 7.123 86.0929 7.17067 86.4569 7.266C86.8295 7.36133 87.1155 7.46533 87.3149 7.578V8.605C87.0895 8.45767 86.8079 8.33633 86.4699 8.241C86.1405 8.137 85.7289 8.085 85.2349 8.085C84.7235 8.085 84.3292 8.15433 84.0519 8.293C83.7832 8.43167 83.6489 8.683 83.6489 9.047C83.6489 9.229 83.6879 9.37633 83.7659 9.489C83.8439 9.593 83.9479 9.67967 84.0779 9.749C84.2165 9.80967 84.3725 9.85733 84.5459 9.892C84.7192 9.92667 84.9012 9.96567 85.0919 10.009C85.3865 10.0697 85.6899 10.1347 86.0019 10.204C86.3139 10.2733 86.5912 10.3817 86.8339 10.529C87.0852 10.6763 87.2889 10.8757 87.4449 11.127C87.6095 11.3697 87.6919 11.699 87.6919 12.115C87.6919 12.505 87.6139 12.83 87.4579 13.09C87.3019 13.35 87.0939 13.558 86.8339 13.714C86.5825 13.8613 86.2922 13.9653 85.9629 14.026C85.6422 14.0953 85.3129 14.13 84.9749 14.13Z" fill="#4768C2"/>
<defs>
<clipPath id="clip0_3479_35432">
<rect width="12" height="12" fill="white" transform="translate(6 4)"/>
</clipPath>
</defs>
</svg>

<svg xmlns="http://www.w3.org/2000/svg" width="97" height="20" fill="none" viewBox="0 0 97 20">
    <g clip-path="url(#clip0_3479_35432)">
        <path fill="#4E79EB" fill-rule="evenodd" d="M16.125 10a4.125 4.125 0 1 1-8.25 0 4.125 4.125 0 0 1 8.25 0Zm1.125 0a5.25 5.25 0 1 1-10.5 0 5.25 5.25 0 0 1 10.5 0Zm-5.813 2.273 2.813-1.623a.75.75 0 0 0 0-1.3l-2.813-1.623a.75.75 0 0 0-1.124.65v3.247a.75.75 0 0 0 1.124.65Z" clip-rule="evenodd"/>
    </g>
    <path fill="#4768C2" d="M25.314 4.679V14h-1.222V4.679h1.222Zm5.21 3.458c-.52 0-.945.121-1.274.364a2.66 2.66 0 0 0-.78.91V14h-1.144V7.253h1.079l.039 1.209h.026c.182-.39.468-.71.858-.962.39-.251.884-.377 1.482-.377.667 0 1.196.178 1.586.533.398.347.598.884.598 1.612V14H31.85V9.385c0-.468-.117-.793-.351-.975-.234-.182-.56-.273-.975-.273Zm10.529 5.993c-.52 0-.971-.121-1.352-.364a2.648 2.648 0 0 1-.897-1.001v3.536H37.66V7.253h1l.118 1.313c.225-.442.528-.793.91-1.053.381-.26.853-.39 1.417-.39.39 0 .762.074 1.118.221.364.139.68.355.949.65.277.286.494.65.65 1.092.164.433.247.945.247 1.534 0 .598-.083 1.118-.247 1.56a3.26 3.26 0 0 1-.663 1.092 2.78 2.78 0 0 1-.962.65 3.185 3.185 0 0 1-1.144.208Zm-.17-1.027c.599 0 1.08-.204 1.444-.611.372-.416.559-1.04.559-1.872 0-.815-.187-1.43-.56-1.846-.363-.425-.844-.637-1.442-.637a2.22 2.22 0 0 0-.832.156c-.252.104-.473.26-.663.468-.182.2-.33.455-.442.767a3.457 3.457 0 0 0-.156 1.092c0 .416.052.78.156 1.092.112.312.26.572.442.78.19.208.411.364.663.468.26.095.537.143.832.143Zm7.913-4.706a3.51 3.51 0 0 0-1.326.377c-.39.2-.68.511-.871.936V14h-1.144V7.253h1l.118 1.469h.026a3.05 3.05 0 0 1 .819-1.04c.364-.303.823-.49 1.378-.559v1.274Zm3.973 5.733a3.5 3.5 0 0 1-1.288-.234 2.996 2.996 0 0 1-1.04-.676 3.293 3.293 0 0 1-.675-1.105c-.165-.433-.247-.932-.247-1.495 0-.555.082-1.049.247-1.482.164-.442.39-.81.675-1.105.295-.295.642-.52 1.04-.676a3.5 3.5 0 0 1 1.288-.234c.468 0 .9.078 1.3.234.398.156.74.381 1.026.676.295.295.525.663.69 1.105.173.433.26.927.26 1.482 0 .563-.087 1.062-.26 1.495a3.19 3.19 0 0 1-.69 1.105c-.285.295-.628.52-1.026.676a3.537 3.537 0 0 1-1.3.234Zm0-1.027c.303 0 .58-.048.831-.143a1.9 1.9 0 0 0 .676-.455 2.13 2.13 0 0 0 .442-.78c.104-.312.156-.68.156-1.105 0-.425-.052-.793-.156-1.105a2.01 2.01 0 0 0-.442-.767 1.7 1.7 0 0 0-.676-.455 2.156 2.156 0 0 0-.831-.156c-.304 0-.581.052-.832.156a1.717 1.717 0 0 0-.663.455 2.11 2.11 0 0 0-.43.767c-.104.312-.156.68-.156 1.105 0 .425.052.793.156 1.105.105.312.248.572.43.78.19.2.411.351.663.455.25.095.528.143.832.143Zm10.468.325c0 .433-.065.828-.195 1.183-.121.364-.32.672-.598.923-.269.251-.62.446-1.053.585-.425.139-.94.208-1.547.208-.33 0-.62-.017-.871-.052a4.008 4.008 0 0 1-.663-.143 2.4 2.4 0 0 1-.468-.182 2.177 2.177 0 0 1-.325-.182v-1.027c.139.078.282.147.429.208a3.829 3.829 0 0 0 1.118.299 5.4 5.4 0 0 0 .793.052c.832 0 1.413-.156 1.742-.468.33-.312.494-.776.494-1.391v-1.04c-.2.399-.481.72-.845.962-.355.243-.797.364-1.326.364a3.2 3.2 0 0 1-1.144-.208 2.832 2.832 0 0 1-.95-.611 3.156 3.156 0 0 1-.65-1.027c-.155-.416-.233-.897-.233-1.443 0-.555.078-1.036.234-1.443.165-.416.381-.763.65-1.04.277-.277.598-.485.962-.624s.75-.208 1.157-.208c.537 0 .988.121 1.352.364.373.243.663.572.87.988l.014-.143c0-.156.009-.342.026-.559.017-.225.035-.399.052-.52h1.04a8.688 8.688 0 0 0-.052.52c-.009.225-.013.412-.013.559v5.096ZM60.13 12.7c.286 0 .546-.043.78-.13a1.64 1.64 0 0 0 .624-.429c.182-.19.32-.425.416-.702.104-.286.156-.62.156-1.001 0-.771-.19-1.348-.572-1.729-.373-.381-.845-.572-1.417-.572a2.26 2.26 0 0 0-.806.143 1.762 1.762 0 0 0-.637.429c-.173.19-.312.433-.416.728-.104.286-.156.62-.156 1.001 0 .381.052.715.156 1.001.104.277.247.511.429.702.182.182.394.32.637.416.251.095.52.143.806.143Zm8.305-4.303a3.512 3.512 0 0 0-1.326.377c-.39.2-.68.511-.87.936V14h-1.145V7.253h1.001l.117 1.469h.026c.19-.399.464-.745.82-1.04.363-.303.822-.49 1.377-.559v1.274Zm6.573 5.031a3.51 3.51 0 0 1-.35.221 4.062 4.062 0 0 1-.508.234c-.2.07-.425.126-.676.169a4.185 4.185 0 0 1-.845.078c-1.135 0-1.998-.308-2.587-.923-.59-.615-.884-1.478-.884-2.587 0-.546.078-1.036.234-1.469.165-.433.39-.797.676-1.092a2.812 2.812 0 0 1 1.014-.689c.39-.165.815-.247 1.274-.247.486 0 .919.082 1.3.247.381.165.694.407.936.728.252.32.42.72.507 1.196.096.468.096 1.014 0 1.638h-4.758c.044.728.26 1.274.65 1.638.39.355.97.533 1.742.533.52 0 .966-.074 1.34-.221a4.69 4.69 0 0 0 .935-.481v1.027ZM72.33 8.137a1.9 1.9 0 0 0-1.274.455c-.355.303-.58.763-.676 1.378h3.627c.035-.624-.108-1.083-.429-1.378-.32-.303-.737-.455-1.248-.455Zm6.36 5.993c-.355 0-.671-.03-.948-.091a4.455 4.455 0 0 1-.715-.195 3.886 3.886 0 0 1-.507-.26 3.42 3.42 0 0 1-.325-.247V12.31c.086.087.203.182.35.286.148.095.326.186.534.273.208.087.442.16.702.221.268.052.567.078.897.078.485 0 .87-.078 1.157-.234.286-.156.429-.42.429-.793 0-.2-.048-.36-.143-.481a.868.868 0 0 0-.364-.286 2.24 2.24 0 0 0-.546-.182c-.2-.043-.412-.087-.637-.13-.286-.06-.568-.126-.845-.195a2.956 2.956 0 0 1-.754-.325 1.767 1.767 0 0 1-.546-.559c-.139-.234-.208-.537-.208-.91 0-.607.234-1.083.702-1.43.476-.347 1.14-.52 1.989-.52a5 5 0 0 1 1.26.143c.373.095.66.2.859.312v1.027a3.06 3.06 0 0 0-.845-.364c-.33-.104-.741-.156-1.235-.156-.512 0-.906.07-1.183.208-.269.139-.403.39-.403.754 0 .182.039.33.117.442.078.104.182.19.312.26.138.06.294.108.468.143.173.035.355.074.546.117.294.06.598.126.91.195.312.07.589.178.832.325.251.147.455.347.61.598.165.243.248.572.248.988 0 .39-.078.715-.234.975-.156.26-.364.468-.624.624a2.664 2.664 0 0 1-.871.312c-.321.07-.65.104-.988.104Zm6.285 0a4.46 4.46 0 0 1-.95-.091 4.455 4.455 0 0 1-.714-.195 3.886 3.886 0 0 1-.507-.26 3.42 3.42 0 0 1-.325-.247V12.31c.087.087.204.182.35.286.148.095.326.186.534.273.208.087.442.16.702.221.269.052.567.078.897.078.485 0 .87-.078 1.157-.234.286-.156.429-.42.429-.793 0-.2-.048-.36-.143-.481a.868.868 0 0 0-.364-.286 2.24 2.24 0 0 0-.546-.182c-.2-.043-.412-.087-.637-.13-.286-.06-.568-.126-.845-.195a2.956 2.956 0 0 1-.754-.325 1.767 1.767 0 0 1-.546-.559c-.139-.234-.208-.537-.208-.91 0-.607.234-1.083.702-1.43.477-.347 1.14-.52 1.989-.52a5 5 0 0 1 1.26.143c.373.095.66.2.859.312v1.027a3.06 3.06 0 0 0-.845-.364c-.33-.104-.741-.156-1.235-.156-.511 0-.906.07-1.183.208-.269.139-.403.39-.403.754 0 .182.039.33.117.442.078.104.182.19.312.26.138.06.294.108.468.143.173.035.355.074.546.117.294.06.598.126.91.195.312.07.59.178.832.325.251.147.455.347.61.598.165.243.248.572.248.988 0 .39-.078.715-.234.975-.156.26-.364.468-.624.624a2.664 2.664 0 0 1-.871.312c-.32.07-.65.104-.988.104Z"/>
    <defs>
        <clipPath id="clip0_3479_35432">
            <path fill="#fff" d="M6 4h12v12H6z"/>
        </clipPath>
    </defs>
</svg>
